X:172
T:Lemonville Jig
R:jig 32
C:Jack Hayes
O:Canada
Z:PJHeadford 2008
M:6/8
L:1/8
Q:3/8=120
K:D
f2g||"D"aba afd|fgf fdA|ded "B"dAF|"Em"G3- "D"G ef|\
"A"gag gec|efe ecA|cBA "Em"gfe|"D"f3 "A"f2g|
"D"aba afd|fgf fdA|ded "B"def|"Em"B3- "D"B ef|\
"A"gag gec|efe ecA|cBA "Em"gfe|"D"d3- d||
AG|"D"FGA AB"^(A)"c|"D"ded "B"def|"Em"gag gfe|B3- "D"B ed|\
"A"cea age|cea age|cea "Em"gfe|"D"fdB "A"A2G|
"D"FGA AB"^(A)"c|"D"ded "B"def|"Em"gag gfe|B3- "D"B ede|\
"A"cea age|cea age|cea "Em"gfe|"D"d3|]

